X:1
T:Veramente in Amore
T:Giovanni Pierluigi da Paletrina
T:Source : Meledia Olympica---Anversa---P.Phalesio & G.Bellero---1591. Editor: André Vierendeels (13/01/14).
T:Veramente in Amore
C:Giovanni Pierluigi da Paletrina
%%score [ 1 2 [ 3 4 ] ]
L:1/8
Q:1/4=96
M:4/4
K:C
V:1 treble nm="Canto" snm="C"
V:2 treble nm="Alto" snm="A"
V:3 treble-8 nm="Tenor 1" snm="T 1"
V:4 treble-8 nm="Tenor 2" snm="T 2"
V:1
 G2 G2 A4 | G2 A2 B4 | c4 z4 | z4 d4 | d4 c4- | c4 _B4- | B4 A4 | G8 | G2 d2 e2 g2 | ^f4 g4 | %10
w: Ve- ra- men-|te'in A- mo-|re,|mor-|tal e'o-|* gni|_ do-|lo-|re, ma lon- ta-|nan- za|
 G4 A4 | B4 c4 | z2 c4 B2 | c4 d4 | c8 | c3 B cd ec | dc c4 B2 | c4 z2 c2 | c4 d4 | e2 e2 d4 | %20
w: dal ca-|ro ben|o- gni|mar- tir|a-|van- * * * * *||za, chi|la sua|don- na ve-|
 d6 c2 | d2 c2 d4- | d2 c2 B4 | A2 c2 c4 | d4 _B4 | A4 G4 | G2 B2 A2 G2 | A6 B2 | cB AG A4 | G8 | %30
w: de, di-|nan- zia se|_ pre- sen-|te, puo ben|spe- rar|mer- ce-|de, ma quan- d'e-|gli fi'ab-|sen- * * * *|te,|
 z2 g4 f2 | e4 d2 c2 | B2 B2 c2 d2 | e8 | d4 e4- | e2 d2 c4 | B2 A2 G2 G2 | A2 B2 c4- | c4 B4 | %39
w: di soc-|cor- so gli'e|tol- t'o- gni spe-|ran-|za, di|_ soc- cor-|so gli'e tol- t'o-|gni spe- ran-|* za,|
 z2 B4 c2- | c2 B2 c4 | B4 d4 | B2 c2 d4 | G2 A3 G G2- |"^#" G2 F2 G2 d2 | d4 d2 e2- | %46
w: l'ab- sen-|* ti'a- dun-|que- o-|gni mar- tir|a- van- * *|* * za, l'ab-|sen- ti'a- dun-|
 e2 d2 B2 c2 | d2 d4 c2- | c2 d2 e4 | c4 z4 | G4 E2 F2 | G2 G2 A4 | B2 d2 e2 A2 | B4 G2 A2- | %54
w: * que'o- gni mar-|tir, l'ab- sen-|* ti'a dun-|que|o- gni mar-|tir a- van-|za, o- gni mar-|tir a- van-|
 AG G4 ^F2 | G8 |] %56
w: |za.|
V:2
 C2 C2 F4 | E2 F2 G4 | G8 | z2 A2 _B4 | F4 A4- | A4 G4- |"^b" G4 A3 B | c8 | B4 z4 | z2 A2 B2 d2 | %10
w: Ve- ra- men-|te'in A- mo-|re,|mor- tal|e'o gni|_ do-|* lo- *||re,|ma lon- ta-|
 ^c4 d4 | D4 E4 | F4 G4- | G4 z2 G2- | G2 F4 E2 | A4 G4 | A4 G3 F | E2 G2 G4 | A4 B4 | c4 B4 | %20
w: nan- za|dal ca-|ro ben|_ o-|* gni mar-|tir a-|van- * *|za, chi la|don- na|ve- *|
 A2 B2 A2 G2 | A6 G2 |"^#" FG A4 G2 | A4 z2 A2 | F2 F2 G4 | c4 c4 | B4 z4 | z4 z2 G2 | F2 E2 F4- | %29
w: de, di- nan- zia|se pre-|sen- * * *|te, puo|ben spe- rar|mer- ce-|de,|ma|quan- d'e- gli|
 F2 E2 D4 | E4 z4 | z8 | G6 F2 | E4 D2 C2 | B,2 B,2 C3 D | E2 F2 G4 | F4 E4 | E2 D2 CDEF | G4 G4 | %39
w: _ fi'ab- sen-|te,||di soc-|cor- so gli'e|tol- t'o- gni _|_ spe- ran-|ran- za'o-|gni, spe- ran- * * *|* za,|
 z2 G4 A2- |"^#" A2 G2 E2 F2 | G4 z2 B2- | B2 G2 A2 B2- | B2 c2 B3 A/G/ | A4 B2 B2- | %45
w: l'ab- sen-|* ti'a- dun- *|que o-|* gni mar- tir|_ a- van- * *|* za, l'ab-|
 B2 A2 B2 c2- | c2 F2 z2 G2- | G2 ^F4 G2 | A4 G4 | E2 F2 G4 | C2 D3 C C2- | C2 B,2 C2 D2- | %52
w: sen- ti'a- dun- *|* que l'ab-|* sen- ti'a|dun- que'o-|gni mar- tir|a- van- * *|* * za, o-|
 D2 B,2 C2 D2- | D2 G,2 D2 E2- | ED B,C D4 | D8 |] %56
w: * gni mar- tir|_ a- van- *||za.|
V:3
 z8 | z4 d2 d2 | e4 d2 e2 | ^f4 g4 | z2 d2 f4 | c4 d4 | e4 f4- | f2 ed e4 | d2 G2 c2 c2 | %9
w: |Ve- ra-|men- te'in A-|mo- re,|mor- tal|e'o gni|do- lo-||re, ma lon- ta-|
 A4 G2 d2 | e2 g2 ^f4 | g8 | c4 d4 | e4 f2 g2 | a4 g4- | g2 f4 e2 | f3 e d4 | c2 e2 e4 | f4 d4 | %19
w: nan- za,- ma|lon- ta- nan-|za,|dal ca-|ro ben o-|gni mar-|* tir a-|van- * *|za, chi la|sua don-|
 c4 g4 | d2 g2 f2 e2 | f6 g2 | a4 e4 | z2 e2 e2 f2- | f2 d4 e2 | f3 e/d/ e4 | d4 z2 e2 | d2 c2 d4 | %28
w: na ve-|de, di- nan- zia|se pre-|sen- te,|puo ben spe-|* rar mer-|ce- * * *|de, ma|quan- d'e- gli|
 c4 F4 | G8 | g4 e2 a2- | a2 g4 c2 | d2 d2 e2 f2 | g8 | g4 z2 g2- | g2 f2 e4 | d2 c2 B2 B2 | %37
w: fi'ab- sen-|te,|di soc- cor|_ so gli'e|tol- t'o- gni spe-|ran-|za, di|_ sic- co-|so gli'e tol- t'o-|
 c2 d2 e4- | e4 d4 | z2 d4 f2- | f2 d2 c4 | d4 z2 g2- | g2 e2 f2 g2- | g2 c2 e4 | d4 z2 g2- | %45
w: gni spe- ran-|* za,|l'ab- sen-|* ti'a- dun-|que o-|* gni mar- tir|_ a- van-|za, l'ab-|
 g2 ^f4 g2 | a4 g4 | a4 d2 e2 | f4 c2 e2- | e2 c2 d2 e2- | e2 B2 c3 d |"^#" ef g4 f2 | g4 z4 | %53
w: * sen- ti'a-|dun- que,|l'ab- sen- ti'a-|dun- que,- o-|* gni mar- tir|_ a- van- *||za,|
 d4 B2 c2 | B2 G2 A4 | B8 |] %56
w: o- gni mar-|tir a- van-|za.|
V:4
 z8 | z4 G2 G2 | c4 B2 c2 | A4 G2 G2 | _B4 F4 | A4 _B4 | c8- | c8 | G4 z4 | D4 G2 G2 | E4 D4 | %11
w: |Ve- ra-|men- te'in A-|mo- re, mor-|tal e'o-|gni do-|lo-||re,|ma lon- ta-|nan- za,|
 G4 c4 | A4 G4 | z2 c4 B2 | c8 | c8 | F4 G4 | C8 | z8 | z8 | z8 | z8 | z8 | z2 A2 A4 | _B4 G4 | %25
w: dal ca-|ro ben|o- gni|mar-|tir|a- van-|za,||||||puo ben|spe- rar|
 F4 c4 | G2 G2 F2 E2 | F6 G2 | A3 B c2 d2- | d2 c4 B2 | c2 e4 d2 | c4 B2 A2 | G3 F E2 D2 | C8 | %34
w: mer- ce-|de, ma quan- d'e-|gli fi'ab-|sen- * * *||te, di soc-|cor- so gli'e|tol- t'o- gni spe-|ran|
 G4 z4 | C8 | D4 E4 | A8 | G8 | z2 G4 F2- | F2 G2 A4 | G8 | z8 | z8 | z8 | z2 d4 c2- | c2 d2 e4 | %47
w: za,|o-|gni spe-|ran-|za,|l'ab- sen-|* ti'a dun-|que,||||l'ab- sen-|* ti'a dun-|
 d4 z4 | z4 z2 c2- | c2 A2 B2 c2- | c2 G2 A4 | G4 z4 | G4 E2 F2 | G6 C2 | E4 D4 | G8 |] %56
w: que,|o-|* gni mar- tir|_ a- van-|za,|o- gni mar-|tir a-|van- *|za.|

